src/icons/skills/obsidian.svg

<?xml version="1.0" encoding="UTF-8"?>
<svg fill="none" viewBox="0 0 256 256" xmlns="http://www.w3.org/2000/svg">
<g clip-path="url(#k)">
<path d="m196 0h-136c-33.137 0-60 26.863-60 60v136c0 33.137 26.863 60 60 60h136c33.137 0 60-26.863 60-60v-136c0-33.137-26.863-60-60-60z" fill="#242938"/>
<g clip-path="url(#j)">
<mask id="i" x="28" y="28" width="201" height="201" style="mask-type:luminance" maskUnits="userSpaceOnUse">
<path d="m28.078 28.078h200v200h-200v-200z" fill="#fff"/>
</mask>
<g mask="url(#i)">
<path d="m177.34 213.78c-1.211 9.141-10.156 16.25-19.023 13.789-12.657-3.476-27.305-8.906-40.469-9.922l-20.195-1.562c-3.257-0.227-6.3163-1.645-8.5938-3.984l-34.766-35.821c-1.8649-1.908-3.112-4.333-3.5788-6.96-0.4668-2.626-0.1317-5.333 0.9616-7.766 0 0 21.484-47.266 22.305-49.727 0.7812-2.461 3.75-23.906 5.4687-35.39 0.4688-3.0859 1.9532-5.8594 4.2969-7.9297l41.133-37.031c1.356-1.2183 2.948-2.1452 4.677-2.7233s3.559-0.7952 5.375-0.6377c1.816 0.1574 3.581 0.686 5.184 1.5531 1.604 0.867 3.013 2.0541 4.139 3.4876l34.531 43.906c1.921 2.5133 2.964 5.5871 2.969 8.75 0 8.3203 0.703 25.39 5.313 36.406 4.492 10.664 12.695 22.265 16.992 27.929 0.818 1.06 1.302 2.338 1.393 3.673 0.09 1.336-0.218 2.668-0.885 3.827-5.575 9.355-11.411 18.551-17.5 27.579-5.86 8.711-8.555 19.492-9.766 28.554h0.039z" fill="#6C31E3"/>
<path d="m92.805 214.84c16.172-32.813 15.703-56.328 8.8283-73.047-6.3283-15.469-18.086-25.195-27.344-31.25-0.2344 0.899-0.5078 1.719-0.8594 2.539l-21.758 48.516c-1.0983 2.43-1.4397 5.134-0.9799 7.76 0.4598 2.627 1.6996 5.054 3.558 6.966l34.805 35.821c1.0798 1.124 2.3492 2.05 3.75 2.734v-0.039z" fill="url(#h)"/>
<path d="m136.75 148.23c4.375 0.469 8.672 1.407 12.813 2.969 13.281 4.961 25.39 16.094 35.351 37.617 0.703-1.211 1.406-2.422 2.188-3.593 6.082-9.033 11.918-18.229 17.5-27.579 0.683-1.155 1-2.489 0.909-3.828s-0.585-2.619-1.417-3.672c-4.297-5.703-12.5-17.265-16.992-27.929-4.61-11.016-5.274-28.125-5.313-36.406 0-3.1641-1.015-6.25-2.969-8.75l-34.57-43.906c-0.188-0.2278-0.383-0.4492-0.586-0.664 2.275 6.8114 2.546 14.133 0.781 21.094-1.673 5.6205-3.98 11.033-6.875 16.133l-2.812 5.5468c-4.509 8.5851-7.095 18.049-7.578 27.734-0.469 11.484 1.875 25.937 9.57 45.234z" fill="url(#g)"/>
<path d="m136.75 148.23c-7.695-19.297-10.078-33.75-9.57-45.273 0.483-9.6853 3.069-19.149 7.578-27.734 0.898-1.875 1.875-3.711 2.812-5.5078 2.774-5.4297 5.469-10.547 6.875-16.172 1.765-6.961 1.494-14.282-0.781-21.094-2.37-2.6116-5.678-4.1769-9.201-4.3527-3.522-0.1757-6.97 1.0525-9.588 3.4152l-41.172 37.031c-2.2963 2.0691-3.8016 4.8725-4.2578 7.9297l-5 33.203-0.1953 0.898c9.2969 6.055 21.094 15.781 27.383 31.25 1.3 3.133 2.319 6.375 3.047 9.688 10.937-2.657 21.758-4.297 32.07-3.243v-0.039z" fill="url(#f)"/>
<path d="m158.31 227.61c8.867 2.422 17.812-4.687 19.023-13.828 1.008-8.707 3.575-17.162 7.578-24.961-10-21.484-22.07-32.656-35.312-37.617-14.063-5.234-29.375-3.515-44.922 0.274 3.476 15.781 1.406 36.445-11.875 63.359 1.5625 0.703 3.1641 1.172 4.8828 1.289 0 0 9.5315 0.781 20.938 1.602 11.328 0.781 28.281 6.679 39.688 9.843v0.039z" fill="url(#e)"/>
<path d="m127.26 102.22c-0.508 11.406 0.937 24.531 8.633 43.789l-2.422-0.196c-6.914-20.117-8.399-30.468-7.891-42.031 0.594-9.8403 3.312-19.435 7.969-28.125 0.937-1.914 3.125-5.5078 4.102-7.3437 2.773-5.3516 4.648-8.2031 6.25-13.125 2.226-6.8359 1.757-10.117 1.484-13.32 1.797 11.68-4.961 21.875-10.039 32.188-4.67 8.6911-7.427 18.281-8.086 28.125v0.039z" clip-rule="evenodd" fill="url(#d)" fill-rule="evenodd"/>
<path d="m103.9 142.61c0.938 2.11 1.797 3.828 2.344 6.446l-2.07 0.429c-0.82-3.046-1.485-5.234-2.656-7.812-6.9535-16.406-18.086-24.844-27.227-31.055 11.016 5.938 22.344 15.235 29.57 31.992h0.039z" clip-rule="evenodd" fill="url(#c)" fill-rule="evenodd"/>
<path d="m106.36 151.09c3.829 17.969-0.468 40.703-13.125 62.851 10.586-21.953 15.704-43.007 11.446-62.5l1.679-0.351z" clip-rule="evenodd" fill="url(#b)" fill-rule="evenodd"/>
<path d="m150.07 149.48c20.742 7.774 28.75 24.844 34.727 39.063-7.422-14.883-17.656-31.367-35.469-37.5-13.594-4.61-25.039-4.063-44.648 0.39l-0.43-1.953c20.781-4.726 31.641-5.273 45.82 0z" clip-rule="evenodd" fill="url(#a)" fill-rule="evenodd"/>
</g>
</g>
</g>
<defs>
<radialGradient id="h" cx="0" cy="0" r="1" gradientTransform="translate(91.047 211.59) rotate(255.31) scale(90.862 60.542)" gradientUnits="userSpaceOnUse">
<stop stop-color="#fff" stop-opacity=".4" offset="0"/>
<stop stop-opacity=".1" offset="1"/>
</radialGradient>
<radialGradient id="g" cx="0" cy="0" r="1" gradientTransform="translate(168.62 174.17) rotate(-82.485) scale(149.33 110.33)" gradientUnits="userSpaceOnUse">
<stop stop-color="#fff" stop-opacity=".6" offset="0"/>
<stop stop-color="#fff" stop-opacity=".1" offset="1"/>
</radialGradient>
<radialGradient id="f" cx="0" cy="0" r="1" gradientTransform="translate(96.516 147.92) rotate(-77.795) scale(127.49 87.113)" gradientUnits="userSpaceOnUse">
<stop stop-color="#fff" stop-opacity=".8" offset="0"/>
<stop stop-color="#fff" stop-opacity=".4" offset="1"/>
</radialGradient>
<radialGradient id="e" cx="0" cy="0" r="1" gradientTransform="translate(158.98 228.08) rotate(239.5) scale(73.894 84.946)" gradientUnits="userSpaceOnUse">
<stop stop-color="#fff" stop-opacity=".3" offset="0"/>
<stop stop-opacity=".3" offset="1"/>
</radialGradient>
<radialGradient id="d" cx="0" cy="0" r="1" gradientTransform="translate(149.09 78.078) rotate(102.24) scale(66.351 44.743)" gradientUnits="userSpaceOnUse">
<stop stop-color="#fff" stop-opacity="0" offset="0"/>
<stop stop-color="#fff" stop-opacity=".2" offset="1"/>
</radialGradient>
<radialGradient id="b" cx="0" cy="0" r="1" gradientTransform="translate(111.98 138.94) rotate(86.04) scale(50.903 108.1)" gradientUnits="userSpaceOnUse">
<stop stop-color="#fff" stop-opacity=".2" offset="0"/>
<stop stop-color="#fff" stop-opacity=".3" offset="1"/>
</radialGradient>
</defs>
</svg>

<svg viewBox="0 0 256 256" fill="none" xmlns="http://www.w3.org/2000/svg">
<g clip-path="url(#clip0_33_895)">
<path d="M196 0H60C26.8629 0 0 26.8629 0 60V196C0 229.137 26.8629 256 60 256H196C229.137 256 256 229.137 256 196V60C256 26.8629 229.137 0 196 0Z" fill="#242938"/>
<g clip-path="url(#clip1_33_895)">
<mask id="mask0_33_895" style="mask-type:luminance" maskUnits="userSpaceOnUse" x="28" y="28" width="201" height="201">
<path d="M28.0781 28.0781H228.078V228.078H28.0781V28.0781Z" fill="white"/>
</mask>
<g mask="url(#mask0_33_895)">
<path d="M177.336 213.781C176.125 222.922 167.18 230.031 158.313 227.57C145.656 224.094 131.008 218.664 117.844 217.648L97.6486 216.086C94.3916 215.859 91.3323 214.441 89.0548 212.102L54.2892 176.281C52.4243 174.373 51.1772 171.948 50.7104 169.321C50.2436 166.695 50.5787 163.988 51.672 161.555C51.672 161.555 73.1564 114.289 73.9767 111.828C74.7579 109.367 77.7267 87.9219 79.4454 76.4375C79.9142 73.3516 81.3986 70.5781 83.7423 68.5078L124.875 31.4766C126.231 30.2583 127.823 29.3314 129.552 28.7533C131.281 28.1752 133.111 27.9581 134.927 28.1156C136.743 28.273 138.508 28.8016 140.111 29.6687C141.715 30.5357 143.124 31.7228 144.25 33.1563L178.781 77.0625C180.702 79.5758 181.745 82.6496 181.75 85.8125C181.75 94.1328 182.453 111.203 187.063 122.219C191.555 132.883 199.758 144.484 204.055 150.148C204.873 151.208 205.357 152.486 205.448 153.821C205.538 155.157 205.23 156.489 204.563 157.648C198.988 167.003 193.152 176.199 187.063 185.227C181.203 193.938 178.508 204.719 177.297 213.781H177.336Z" fill="#6C31E3"/>
<path d="M92.8047 214.836C108.977 182.023 108.508 158.508 101.633 141.789C95.3047 126.32 83.5469 116.594 74.2891 110.539C74.0547 111.438 73.7813 112.258 73.4297 113.078L51.6719 161.594C50.5736 164.024 50.2322 166.728 50.692 169.354C51.1518 171.981 52.3916 174.408 54.25 176.32L89.0547 212.141C90.1345 213.265 91.4039 214.191 92.8047 214.875V214.836Z" fill="url(#paint0_radial_33_895)"/>
<path d="M136.75 148.234C141.125 148.703 145.422 149.641 149.563 151.203C162.844 156.164 174.953 167.297 184.914 188.82C185.617 187.609 186.32 186.398 187.102 185.227C193.184 176.194 199.02 166.998 204.602 157.648C205.285 156.493 205.602 155.159 205.511 153.82C205.42 152.481 204.926 151.201 204.094 150.148C199.797 144.445 191.594 132.883 187.102 122.219C182.492 111.203 181.828 94.0938 181.789 85.8125C181.789 82.6484 180.774 79.5625 178.82 77.0625L144.25 33.1562C144.062 32.9284 143.867 32.707 143.664 32.4922C145.939 39.3036 146.21 46.6249 144.445 53.5859C142.772 59.2064 140.465 64.6187 137.57 69.7188L134.758 75.2656C130.249 83.8507 127.663 93.3147 127.18 103C126.711 114.484 129.055 128.937 136.75 148.234Z" fill="url(#paint1_radial_33_895)"/>
<path d="M136.75 148.234C129.055 128.937 126.672 114.484 127.18 102.961C127.663 93.2757 130.249 83.8117 134.758 75.2266C135.656 73.3516 136.633 71.5156 137.57 69.7188C140.344 64.2891 143.039 59.1719 144.445 53.5469C146.21 46.5859 145.939 39.2645 143.664 32.4531C141.294 29.8415 137.986 28.2762 134.463 28.1004C130.941 27.9247 127.493 29.1529 124.875 31.5156L83.7031 68.5469C81.4068 70.616 79.9015 73.4194 79.4453 76.4766L74.4453 109.68L74.25 110.578C83.5469 116.633 95.3438 126.359 101.633 141.828C102.933 144.961 103.952 148.203 104.68 151.516C115.617 148.859 126.438 147.219 136.75 148.273V148.234Z" fill="url(#paint2_radial_33_895)"/>
<path d="M158.313 227.609C167.18 230.031 176.125 222.922 177.336 213.781C178.344 205.074 180.911 196.619 184.914 188.82C174.914 167.336 162.844 156.164 149.602 151.203C135.539 145.969 120.227 147.688 104.68 151.477C108.156 167.258 106.086 187.922 92.8047 214.836C94.3672 215.539 95.9688 216.008 97.6875 216.125C97.6875 216.125 107.219 216.906 118.625 217.727C129.953 218.508 146.906 224.406 158.313 227.57V227.609Z" fill="url(#paint3_radial_33_895)"/>
<path fill-rule="evenodd" clip-rule="evenodd" d="M127.258 102.219C126.75 113.625 128.195 126.75 135.891 146.008L133.469 145.812C126.555 125.695 125.07 115.344 125.578 103.781C126.172 93.9407 128.89 84.3456 133.547 75.6562C134.484 73.7422 136.672 70.1484 137.649 68.3125C140.422 62.9609 142.297 60.1094 143.899 55.1875C146.125 48.3516 145.656 45.0703 145.383 41.8672C147.18 53.5469 140.422 63.7422 135.344 74.0547C130.674 82.7458 127.917 92.3353 127.258 102.18V102.219Z" fill="url(#paint4_radial_33_895)"/>
<path fill-rule="evenodd" clip-rule="evenodd" d="M103.898 142.609C104.836 144.719 105.695 146.437 106.242 149.055L104.172 149.484C103.352 146.438 102.687 144.25 101.516 141.672C94.5625 125.266 83.4297 116.828 74.2891 110.617C85.3047 116.555 96.6328 125.852 103.859 142.609H103.898Z" fill="url(#paint5_radial_33_895)"/>
<path fill-rule="evenodd" clip-rule="evenodd" d="M106.359 151.086C110.188 169.055 105.891 191.789 93.2344 213.937C103.82 191.984 108.938 170.93 104.68 151.437L106.359 151.086Z" fill="url(#paint6_radial_33_895)"/>
<path fill-rule="evenodd" clip-rule="evenodd" d="M150.07 149.484C170.812 157.258 178.82 174.328 184.797 188.547C177.375 173.664 167.141 157.18 149.328 151.047C135.734 146.437 124.289 146.984 104.68 151.437L104.25 149.484C125.031 144.758 135.891 144.211 150.07 149.484Z" fill="url(#paint7_radial_33_895)"/>
</g>
</g>
</g>
<defs>
<radialGradient id="paint0_radial_33_895" cx="0" cy="0" r="1" gradientUnits="userSpaceOnUse" gradientTransform="translate(91.0469 211.594) rotate(-104.693) scale(90.8621 60.5417)">
<stop stop-color="white" stop-opacity="0.4"/>
<stop offset="1" stop-opacity="0.1"/>
</radialGradient>
<radialGradient id="paint1_radial_33_895" cx="0" cy="0" r="1" gradientUnits="userSpaceOnUse" gradientTransform="translate(168.625 174.172) rotate(-82.4846) scale(149.33 110.326)">
<stop stop-color="white" stop-opacity="0.6"/>
<stop offset="1" stop-color="white" stop-opacity="0.1"/>
</radialGradient>
<radialGradient id="paint2_radial_33_895" cx="0" cy="0" r="1" gradientUnits="userSpaceOnUse" gradientTransform="translate(96.5156 147.922) rotate(-77.7949) scale(127.491 87.1129)">
<stop stop-color="white" stop-opacity="0.8"/>
<stop offset="1" stop-color="white" stop-opacity="0.4"/>
</radialGradient>
<radialGradient id="paint3_radial_33_895" cx="0" cy="0" r="1" gradientUnits="userSpaceOnUse" gradientTransform="translate(158.977 228.078) rotate(-120.496) scale(73.8942 84.9458)">
<stop stop-color="white" stop-opacity="0.3"/>
<stop offset="1" stop-opacity="0.3"/>
</radialGradient>
<radialGradient id="paint4_radial_33_895" cx="0" cy="0" r="1" gradientUnits="userSpaceOnUse" gradientTransform="translate(149.094 78.0781) rotate(102.236) scale(66.3511 44.7431)">
<stop stop-color="white" stop-opacity="0"/>
<stop offset="1" stop-color="white" stop-opacity="0.2"/>
</radialGradient>
<radialGradient id="paint5_radial_33_895" cx="0" cy="0" r="1" gradientUnits="userSpaceOnUse" gradientTransform="translate(71.3594 114.016) rotate(45.3237) scale(48.8906 104.136)">
<stop stop-color="white" stop-opacity="0.2"/>
<stop offset="1" stop-color="white" stop-opacity="0.4"/>
</radialGradient>
<radialGradient id="paint6_radial_33_895" cx="0" cy="0" r="1" gradientUnits="userSpaceOnUse" gradientTransform="translate(111.984 138.937) rotate(86.0397) scale(50.9028 108.095)">
<stop stop-color="white" stop-opacity="0.2"/>
<stop offset="1" stop-color="white" stop-opacity="0.3"/>
</radialGradient>
<radialGradient id="paint7_radial_33_895" cx="0" cy="0" r="1" gradientUnits="userSpaceOnUse" gradientTransform="translate(184.25 183.938) rotate(-152.289) scale(87.3639 274.845)">
<stop stop-color="white" stop-opacity="0.2"/>
<stop offset="0.5" stop-color="white" stop-opacity="0.2"/>
<stop offset="1" stop-color="white" stop-opacity="0.3"/>
</radialGradient>
<clipPath id="clip0_33_895">
<rect width="256" height="256" fill="white"/>
</clipPath>
<clipPath id="clip1_33_895">
<rect width="200" height="200" fill="white" transform="translate(28 28)"/>
</clipPath>
</defs>
</svg>
